X: 100380
T: MRS. FINDLAY'S, OF HAYWOOD, STRATHSPEY
C: Composed by William Findlay, Haywood
R: strathspey
B: K\"ohler's Violin Repository, v.3, 1885 p.252 #1
F: http://www.archive.org/details/klersviolinrepos03rugg
Z: 2012 John Chambers <jc:trillian.mit.edu>
M: C
L: 1/8
K: D
uA, |\
D<D(F>A) (d>e)f>a | (.g>.f)(e>d) (3cBA (3GFE |\
D<D(F>A) (d>e)f>a | (g/f/)e/d/ (c/d/)e/g/ f<dd> ||
A |\
D<D(F>A) (d>e)f>a | (.g>.f)e>d (3cde (3cBA |\
(3BGB (3dcB (3cAf (3gfe | (3Bcd (3efg f<dd |]
uf |\
(.a>.f)(d>B) A>FD<F | (.G>.B)(e>f) (g/f/)e/d/ (c/B/)A/G/ |\
F<DA>F G<Ee>f | (3gfe (3cde f<dd> ||
f |\
(.a>.f)(d>B) A>FD<F | (.G>.B)(e>f) (g/f/)e/d/ (c/B/)A/G/ |\
F<DA>F G<Ee>d | (3cBA (3GFE "^Segue Reel."F<DD |]

%%sep 2 1 500

